X: 13712
T: For The Sake Of Old Decency
R: reel
M: 4/4
K: Dmixolydian
|:d2BG AE~E2|AdBG ~A3B|dGBG AE~E2|1 DGBD EGGB:|2 DGBD EGGE||
G2GB dGBd|eaag eaa2|BDGB dGBd|dega bggB|
G2GB d2Bd|eaag eaag|bage a2ge|dega bage||

